X:257
T: SCHNEIDER DEN MAG ICH NET
N: E0842
O: Europa, Mitteleuropa, Deutschland, Hessen, Hanau
R: Hochzeits -, Ehestands - Lied
M: 3/8
L: 1/16
K: F
 | F2A2c2 | c3fc2 |
d2f2d2 | c4z2 |
ddddcB | c2c2A2 |
G2BBG2 | F2d2c2 |
ddddcB | c2c2A2 |
G2BBG2 | F4z2

@@@ Tune index: 4570
